X:5955
T:Stockholmslten
L:1/16
M:2/4
O:Sweden
R:Gnglt
Z:John Chambers
%%TUNEURL: http://www.leeds.ac.uk/music/Info/RRTuneBk/gettune/00000c21.html
%%ID:00000c21
K:A
|: E2 |\
A3E A2c2 | e4 c2A2 | d3f a2f2 | e4 c2e2 | \
a2ba f2ed | e2ae c2Bc | d3B EGBG |1A2AE C2 :|2 A6 :|
|: a2 |\
fafd fafd | f2fa g2f2 | efec A2Ac | e2fe c2A2 | \
E3G B2e2 |  g6 f2 | e2fe d2fd | c6 a2 ||
fafd fafd | f2fa g2f2 | efec A2Ac | e2fe c2A2 | \
E3G B2e2 |  g6 f2 | efec d2BG | A6 :|
